shader_type canvas_item;
render_mode blend_sub;

uniform mat4 world_matrix;

void vertex() {
	// Called for every vertex the material is visible on.
	VERTEX = (world_matrix * vec4(VERTEX,0.0,1.0)).xy;
}

void fragment() {
	// Called for every pixel the material is visible on.
}

//void light() {
	// Called for every pixel for every light affecting the CanvasItem.
	// Uncomment to replace the default light processing function with this one.
//}
